assets/Santa claus/Dark/Flat/santa_claus_flat_dark.svg

<svg width="32" height="32" viewBox="0 0 32 32" fill="none" xmlns="http://www.w3.org/2000/svg">
<path d="M21.2 2H13C9.13 2 6 5.13 6 9H22.96V13.14C23.12 13.11 23.29 13.09 23.47 13.09C25.03 13.09 26.29 14.35 26.29 15.91C26.29 17.03 25.64 17.99 24.7 18.45L26.2 23H28.2V9C28.2 5.13 25.06 2 21.2 2Z" fill="#F8312F"/>
<path d="M9 16C9 17.6569 7.65685 19 6 19C4.34315 19 3 17.6569 3 16C3 14.3431 4.34315 13 6 13C7.65685 13 9 14.3431 9 16Z" fill="#4E3233"/>
<path d="M27 16C27 17.6569 25.6569 19 24 19C22.3431 19 21 17.6569 21 16C21 14.3431 22.3431 13 24 13C25.6569 13 27 14.3431 27 16Z" fill="#4E3233"/>
<path d="M6.62922 22.7456L6.02029 12.9873C5.88318 10.9651 6.44815 9.06929 7.5 7.54505L22.3096 7.30859C23.4833 8.87102 24.1275 10.8591 23.9789 12.9873L23.3001 22.7456C23.0106 25.8191 20.6347 28 17.7398 28H12.1895C9.29456 28 6.91872 25.809 6.62922 22.7456Z" fill="#573739"/>
<path d="M8.19248 12.53C8.38248 12.77 8.66248 12.9 8.95248 12.9C9.15248 12.9 9.35248 12.84 9.51248 12.71C9.51248 12.71 9.51495 12.7083 9.51726 12.7067C9.59377 12.6532 10.4502 12.0547 11.7025 12.21C12.2225 12.27 12.6925 11.9 12.7525 11.38C12.8125 10.86 12.4425 10.39 11.9225 10.33C9.85248 10.08 8.42248 11.16 8.36248 11.21C7.95248 11.53 7.88248 12.12 8.19248 12.53Z" fill="#E6E6E6"/>
<path d="M20.2225 12.72C20.3925 12.85 20.5925 12.91 20.7925 12.91C21.0725 12.91 21.3525 12.78 21.5425 12.55C21.8625 12.13 21.7825 11.54 21.3725 11.22C21.3125 11.17 19.8825 10.09 17.8125 10.34C17.2925 10.4 16.9225 10.87 16.9825 11.39C17.0425 11.91 17.5125 12.28 18.0325 12.22C19.3025 12.06 20.1725 12.68 20.2225 12.72Z" fill="#E6E6E6"/>
<path d="M8.01264 15.3801C8.27264 14.3401 9.22264 13.5601 10.3526 13.5601C11.5226 13.5601 12.5026 14.4001 12.7126 15.5001C12.7626 15.7501 12.5726 15.9701 12.3226 15.9701H8.47264C8.17264 15.9701 7.94264 15.6801 8.01264 15.3801Z" fill="white"/>
<path d="M21.5701 15.3801C21.3101 14.3401 20.3601 13.5601 19.2301 13.5601C18.0601 13.5601 17.0801 14.4001 16.8701 15.5001C16.8201 15.7501 17.0101 15.9701 17.2601 15.9701H21.1101C21.4101 15.9701 21.6401 15.6801 21.5701 15.3801Z" fill="white"/>
<path d="M9.1626 15.56C9.1626 14.71 9.8526 14.02 10.7026 14.02C11.5626 14.02 12.2526 14.72 12.2526 15.56C12.2526 15.7 12.2326 15.84 12.1926 15.97H9.2226C9.1826 15.84 9.1626 15.7 9.1626 15.56Z" fill="#7D4533"/>
<path d="M20.4101 15.56C20.4101 14.71 19.7201 14.02 18.8701 14.02C18.0201 14.02 17.3301 14.72 17.3201 15.56C17.3201 15.7 17.3401 15.84 17.3801 15.97H20.3501C20.3901 15.84 20.4101 15.7 20.4101 15.56Z" fill="#7D4533"/>
<path d="M10.7128 14.6799C11.2028 14.6799 11.5928 15.0699 11.5928 15.5599C11.5928 15.7099 11.5528 15.8399 11.4828 15.9699H9.93276C9.87276 15.8499 9.83276 15.7099 9.83276 15.5599C9.83276 15.0699 10.2228 14.6799 10.7128 14.6799Z" fill="black"/>
<path d="M18.87 14.6799C18.38 14.6799 17.99 15.0699 17.99 15.5599C17.99 15.7099 18.03 15.8399 18.09 15.9699H19.65C19.71 15.8499 19.75 15.7099 19.75 15.5599C19.75 15.0699 19.36 14.6799 18.87 14.6799Z" fill="black"/>
<path d="M10.4526 14.9599C10.4526 15.1091 10.3317 15.2299 10.1826 15.2299C10.0335 15.2299 9.9126 15.1091 9.9126 14.9599C9.9126 14.8108 10.0335 14.6899 10.1826 14.6899C10.3317 14.6899 10.4526 14.8108 10.4526 14.9599Z" fill="white"/>
<path d="M18.6601 14.9599C18.6601 15.1091 18.5392 15.2299 18.3901 15.2299C18.241 15.2299 18.1201 15.1091 18.1201 14.9599C18.1201 14.8108 18.241 14.6899 18.3901 14.6899C18.5392 14.6899 18.6601 14.8108 18.6601 14.9599Z" fill="white"/>
<path d="M24.4378 23.69C24.2764 22.59 24.1654 21.47 24.1048 20.36V8L22.5914 9L22.4905 19.82C22.4804 20.49 22.1474 21.12 21.6026 21.51C20.7146 22.13 19.3573 21.98 18.6511 21.16C18.2979 20.75 17.7833 20.52 17.2385 20.52H15.0341H14.8674H12.663C12.1181 20.52 11.6035 20.75 11.2504 21.16C10.5441 21.98 9.32324 22.13 8.43534 21.51C7.8804 21.12 7.54744 20.49 7.54744 19.82L7.43645 9H5.92298V19.56C5.87253 20.94 5.75145 22.32 5.55974 23.69C5.15615 26.51 6.83106 29.22 9.5654 30.1C11.1192 30.6 12.9758 30.99 14.9735 31C14.9836 31 14.9937 31 15.0038 31C15.0139 31 15.024 31 15.0341 31C17.0319 30.99 18.8884 30.6 20.4422 30.1C23.1665 29.22 24.8515 26.5 24.4378 23.69Z" fill="#D3D3D3"/>
<path d="M12 20.03C12 20.05 12 20.08 12 20.1C12 21.81 13.39 23.2 15.1 23.2C16.81 23.2 18.2 21.81 18.2 20.1C18.2 20.08 18.2 20.05 18.2 20.03H12Z" fill="#290118"/>
<path d="M21.7022 20.9097C21.3035 20.5306 20.6594 20.5306 20.2607 20.9097C20.0562 21.1042 19.7188 21.1139 19.4939 20.9292L18.6658 20.2389C18.0933 19.7625 17.3674 19.5 16.6006 19.5H15.016H14.9751H13.4006C12.6441 19.5 11.908 19.7625 11.3355 20.2389L10.5073 20.9292C10.2824 21.1139 9.95527 21.1042 9.74057 20.9097C9.34185 20.5306 8.69776 20.5306 8.29904 20.9097C7.90032 21.2889 7.90032 21.9014 8.29904 22.2806C8.8 22.7569 9.47476 23 10.1393 23C10.7527 23 11.3661 22.7958 11.8569 22.3778L12.685 21.6875C12.8792 21.5222 13.1348 21.4347 13.3904 21.4347H14.9751H15.016H16.6006C16.8664 21.4347 17.1118 21.5222 17.3061 21.6875L18.1342 22.3778C18.6249 22.7861 19.2383 23 19.8517 23C20.5163 23 21.191 22.7569 21.692 22.2806C22.1009 21.9111 22.1009 21.2889 21.7022 20.9097Z" fill="#E6E6E6"/>
<path d="M14.3832 15.4737L13.5386 18.3257C13.3678 18.9079 13.7853 19.5 14.3737 19.5H15.6263C16.2147 19.5 16.6322 18.9079 16.4614 18.3257L15.6168 15.4737C15.427 14.8421 14.573 14.8421 14.3832 15.4737Z" fill="#3D2123"/>
<path d="M20.8801 5.79993C21.2601 5.54993 21.7201 5.40993 22.2201 5.43993C23.3301 5.49993 24.2301 6.38993 24.3401 7.48993C24.4201 8.77993 23.4001 9.85993 22.1301 9.85993C21.6701 9.85993 21.2501 9.72993 20.9001 9.48993C20.6701 9.33993 20.3701 9.33993 20.1501 9.48993C19.8001 9.71993 19.3701 9.85993 18.9201 9.85993C18.4601 9.85993 18.0401 9.72993 17.6901 9.48993C17.4601 9.33993 17.1601 9.33993 16.9401 9.48993C16.5901 9.71993 16.1601 9.85993 15.7101 9.85993C15.2501 9.85993 14.8301 9.72993 14.4801 9.48993C14.2501 9.33993 13.9501 9.33993 13.7301 9.48993C13.3801 9.71993 12.9501 9.85993 12.5001 9.85993C12.0401 9.85993 11.6201 9.71993 11.2801 9.48993C11.0501 9.33993 10.7501 9.33993 10.5301 9.48993C10.1801 9.71993 9.75005 9.85993 9.30005 9.85993C8.84005 9.85993 8.42005 9.71993 8.08005 9.48993C7.85005 9.33993 7.55005 9.33993 7.33005 9.48993C6.98005 9.71993 6.55005 9.85993 6.10005 9.85993C4.82005 9.85993 3.80005 8.77993 3.89005 7.48993C3.97005 6.38993 4.87005 5.49993 5.98005 5.43993C6.47005 5.40993 6.93005 5.54993 7.31005 5.79993C7.54005 5.94993 7.84005 5.95993 8.07005 5.79993C8.42005 5.56993 8.85005 5.42993 9.30005 5.42993C9.75005 5.42993 10.1701 5.56993 10.5201 5.79993C10.7501 5.94993 11.0501 5.94993 11.2701 5.79993C11.6201 5.56993 12.0501 5.42993 12.5001 5.42993C12.9501 5.42993 13.3701 5.56993 13.7001 5.80993C13.9301 5.95993 14.2301 5.95993 14.4501 5.80993C14.8001 5.57993 15.2301 5.43993 15.6801 5.43993C16.1401 5.43993 16.5601 5.56993 16.9101 5.80993C17.1401 5.95993 17.4401 5.95993 17.6601 5.80993C18.0101 5.57993 18.4401 5.43993 18.8901 5.43993C19.3501 5.43993 19.7701 5.56993 20.1201 5.80993C20.3501 5.95993 20.6501 5.94993 20.8801 5.79993Z" fill="#E6E6E6"/>
<path d="M29.03 24.5299C29.03 25.6511 28.1211 26.5599 27 26.5599C25.8789 26.5599 24.97 25.6511 24.97 24.5299C24.97 23.4088 25.8789 22.4999 27 22.4999C28.1211 22.4999 29.03 23.4088 29.03 24.5299Z" fill="#E6E6E6"/>
<g opacity="0.5">
<path d="M12.7597 16.7494C12.6107 16.6065 12.3743 16.6109 12.2308 16.7591L12.2283 16.7616C12.2253 16.7646 12.2197 16.77 12.2116 16.7776C12.1953 16.7927 12.1692 16.8162 12.1335 16.8453C12.0621 16.9038 11.9538 16.9839 11.8128 17.0644C11.5305 17.2258 11.1243 17.385 10.6201 17.385C10.413 17.385 10.2451 17.5529 10.2451 17.76C10.2451 17.9671 10.413 18.135 10.6201 18.135C11.286 18.135 11.8198 17.9243 12.1849 17.7156C12.3677 17.6112 12.5101 17.5063 12.6083 17.426C12.6575 17.3857 12.6959 17.3514 12.7231 17.3261C12.7367 17.3134 12.7475 17.303 12.7554 17.2951L12.7652 17.2853L12.7685 17.2819L12.7697 17.2807L12.7707 17.2796C12.9141 17.1302 12.9092 16.8928 12.7597 16.7494Z" fill="#341A1C"/>
<path d="M17.4406 16.7494C17.2911 16.8928 17.2862 17.1302 17.4296 17.2796L17.4306 17.2807L17.4318 17.2819L17.4772 17.3261C17.5044 17.3514 17.5428 17.3857 17.592 17.426C17.6903 17.5063 17.8326 17.6112 18.0154 17.7156C18.3805 17.9243 18.9143 18.135 19.5802 18.135C19.7873 18.135 19.9552 17.9671 19.9552 17.76C19.9552 17.5529 19.7873 17.385 19.5802 17.385C19.076 17.385 18.6699 17.2258 18.3875 17.0644C18.2465 16.9839 18.1383 16.9038 18.0668 16.8453C18.0312 16.8162 18.005 16.7927 17.9887 16.7776C17.9806 16.77 17.975 16.7646 17.972 16.7616L17.9696 16.7592C17.8261 16.611 17.5896 16.6065 17.4406 16.7494Z" fill="#341A1C"/>
</g>
</svg>

<svg xmlns="http://www.w3.org/2000/svg" width="32" height="32" fill="none"><path fill="#F8312F" d="M21.2 2H13C9.13 2 6 5.13 6 9h16.96v4.14c.16-.03.33-.05.51-.05 1.56 0 2.82 1.26 2.82 2.82 0 1.12-.65 2.08-1.59 2.54L26.2 23h2V9c0-3.87-3.14-7-7-7Z"/><path fill="#4E3233" d="M9 16a3 3 0 1 1-6 0 3 3 0 0 1 6 0ZM27 16a3 3 0 1 1-6 0 3 3 0 0 1 6 0Z"/><path fill="#573739" d="m6.63 22.746-.61-9.759A8.532 8.532 0 0 1 7.5 7.545l14.81-.236a8.441 8.441 0 0 1 1.669 5.678l-.679 9.759C23.01 25.819 20.635 28 17.74 28h-5.55c-2.895 0-5.271-2.191-5.56-5.254Z"/><path fill="#E6E6E6" d="M8.192 12.53c.19.24.47.37.76.37.2 0 .4-.06.56-.19l.005-.003c.077-.054.933-.652 2.186-.497a.945.945 0 1 0 .22-1.88c-2.07-.25-3.5.83-3.56.88a.95.95 0 0 0-.17 1.32ZM20.223 12.72c.17.13.37.19.57.19.28 0 .56-.13.75-.36a.951.951 0 0 0-.17-1.33c-.06-.05-1.49-1.13-3.56-.88a.945.945 0 1 0 .22 1.88c1.27-.16 2.14.46 2.19.5Z"/><path fill="#fff" d="M8.013 15.38a2.416 2.416 0 0 1 2.34-1.82c1.17 0 2.15.84 2.36 1.94.05.25-.14.47-.39.47h-3.85c-.3 0-.53-.29-.46-.59ZM21.57 15.38a2.416 2.416 0 0 0-2.34-1.82c-1.17 0-2.15.84-2.36 1.94-.05.25.14.47.39.47h3.85c.3 0 .53-.29.46-.59Z"/><path fill="#7D4533" d="M9.163 15.56c0-.85.69-1.54 1.54-1.54.86 0 1.55.7 1.55 1.54 0 .14-.02.28-.06.41h-2.97c-.04-.13-.06-.27-.06-.41ZM20.41 15.56c0-.85-.69-1.54-1.54-1.54-.85 0-1.54.7-1.55 1.54 0 .14.02.28.06.41h2.97c.04-.13.06-.27.06-.41Z"/><path fill="#000" d="M10.713 14.68c.49 0 .88.39.88.88 0 .15-.04.28-.11.41h-1.55a.92.92 0 0 1-.1-.41c0-.49.39-.88.88-.88ZM18.87 14.68c-.49 0-.88.39-.88.88 0 .15.04.28.1.41h1.56c.06-.12.1-.26.1-.41 0-.49-.39-.88-.88-.88Z"/><path fill="#fff" d="M10.453 14.96a.27.27 0 1 1-.54 0 .27.27 0 0 1 .54 0ZM18.66 14.96a.27.27 0 1 1-.54 0 .27.27 0 0 1 .54 0Z"/><path fill="#D3D3D3" d="M24.438 23.69c-.162-1.1-.273-2.22-.333-3.33V8L22.59 9l-.1 10.82c-.01.67-.344 1.3-.888 1.69-.888.62-2.246.47-2.952-.35a1.856 1.856 0 0 0-1.413-.64h-4.575c-.545 0-1.06.23-1.413.64a2.12 2.12 0 0 1-2.815.35 2.071 2.071 0 0 1-.888-1.69L7.437 9H5.922v10.56c-.05 1.38-.172 2.76-.363 4.13a5.854 5.854 0 0 0 4.005 6.41c1.554.5 3.41.89 5.409.9h.06c1.998-.01 3.854-.4 5.408-.9a5.853 5.853 0 0 0 3.996-6.41Z"/><path fill="#290118" d="M12 20.03v.07c0 1.71 1.39 3.1 3.1 3.1 1.71 0 3.1-1.39 3.1-3.1v-.07H12Z"/><path fill="#E6E6E6" d="M21.702 20.91a1.056 1.056 0 0 0-1.441 0 .588.588 0 0 1-.767.02l-.828-.691A3.216 3.216 0 0 0 16.6 19.5h-3.2c-.757 0-1.493.262-2.066.739l-.828.69a.588.588 0 0 1-.766-.02 1.056 1.056 0 0 0-1.442 0 .935.935 0 0 0 0 1.372 2.68 2.68 0 0 0 1.84.719 2.64 2.64 0 0 0 1.718-.622l.828-.69c.194-.166.45-.253.705-.253h3.211c.265 0 .51.087.705.253l.828.69c.49.408 1.104.622 1.718.622a2.68 2.68 0 0 0 1.84-.72.927.927 0 0 0 .01-1.37Z"/><path fill="#3D2123" d="m14.383 15.474-.844 2.852c-.171.582.246 1.174.835 1.174h1.252c.589 0 1.006-.592.835-1.174l-.844-2.852a.638.638 0 0 0-1.234 0Z"/><path fill="#E6E6E6" d="M20.88 5.8c.38-.25.84-.39 1.34-.36 1.11.06 2.01.95 2.12 2.05.08 1.29-.94 2.37-2.21 2.37-.46 0-.88-.13-1.23-.37a.681.681 0 0 0-.75 0c-.35.23-.78.37-1.23.37-.46 0-.88-.13-1.23-.37a.681.681 0 0 0-.75 0c-.35.23-.78.37-1.23.37-.46 0-.88-.13-1.23-.37a.681.681 0 0 0-.75 0c-.35.23-.78.37-1.23.37-.46 0-.88-.14-1.22-.37a.681.681 0 0 0-.75 0c-.35.23-.78.37-1.23.37-.46 0-.88-.14-1.22-.37a.681.681 0 0 0-.75 0c-.35.23-.78.37-1.23.37-1.28 0-2.3-1.08-2.21-2.37.08-1.1.98-1.99 2.09-2.05.49-.03.95.11 1.33.36.23.15.53.16.76 0 .35-.23.78-.37 1.23-.37.45 0 .87.14 1.22.37.23.15.53.15.75 0 .35-.23.78-.37 1.23-.37.45 0 .87.14 1.2.38.23.15.53.15.75 0 .35-.23.78-.37 1.23-.37.46 0 .88.13 1.23.37.23.15.53.15.75 0 .35-.23.78-.37 1.23-.37.46 0 .88.13 1.23.37.23.15.53.14.76-.01ZM29.03 24.53a2.03 2.03 0 1 1-4.06 0 2.03 2.03 0 0 1 4.06 0Z"/><g fill="#341A1C" opacity=".5"><path d="M12.76 16.75a.375.375 0 0 0-.53.01l-.002.002a2.344 2.344 0 0 1-.416.303c-.281.16-.688.32-1.192.32a.375.375 0 0 0 0 .75 3.147 3.147 0 0 0 2.135-.84l.01-.01.003-.003.002-.001v-.001a.375.375 0 0 0-.01-.53ZM17.44 16.75a.375.375 0 0 0-.01.53l.002.002.045.044a3.112 3.112 0 0 0 .538.39c.366.208.9.419 1.565.419a.375.375 0 0 0 0-.75 2.397 2.397 0 0 1-1.608-.623l-.002-.003a.375.375 0 0 0-.53-.01Z"/></g></svg>
